resources/haticons/SVG/notifications_off.svg

<!-- Generated by IcoMoon.io -->
<svg version="1.1" xmlns="http://www.w3.org/2000/svg" width="24" height="24" viewBox="0 0 24 24">
<title>notifications_off</title>
<path d="M18 14.672l-8.953-9.422q0.141-0.047 0.375-0.164l0.328-0.164h0.047l0.281-0.141q0.047 0 0.188-0.047t0.234-0.047v-0.703q0-0.609 0.422-1.055t1.078-0.445 1.078 0.445 0.422 1.055v0.703q2.109 0.516 3.305 2.25t1.195 4.078v3.656zM12 21.984q-0.844 0-1.43-0.563t-0.586-1.406h4.031q0 0.844-0.586 1.406t-1.43 0.563zM7.828 6.141q1.125 1.172 5.883 6.047t7.289 7.547l-1.266 1.266-2.016-2.016h-13.734v-0.984l2.016-2.016v-5.016q0-1.922 0.797-3.422l-2.813-2.766 1.266-1.313z"></path>
</svg>

<svg xmlns="http://www.w3.org/2000/svg" width="24" height="24"><path d="M18 14.672L9.047 5.25q.141-.047.375-.164l.328-.164h.047l.281-.141q.047 0 .188-.047t.234-.047v-.703q0-.609.422-1.055T12 2.484t1.078.445.422 1.055v.703q2.109.516 3.305 2.25T18 11.015v3.656zm-6 7.312q-.844 0-1.43-.563t-.586-1.406h4.031q0 .844-.586 1.406t-1.43.563zM7.828 6.141q1.125 1.172 5.883 6.047T21 19.735l-1.266 1.266-2.016-2.016H3.984v-.984L6 15.985v-5.016q0-1.922.797-3.422L3.984 4.781 5.25 3.468z"/></svg>
